X:1
T:Morpeth Lasses
C:Trad.
M:C|
L:1/8
Q:1/2=116
K:Am
 E2 
P:A
|: "Am"A3B c2 B2 | E2 A2 A4 | "G"B3A G2 A2 | B2 A2 A2 E2 |
"Am"A3B c2 B2 | E2 A2 A2 e2 | "G"d2 B2 G2 B2 | "Am"c2 A2 A4 :||
P:B
 "Am" a2 g2 e2 a2 | g2 e2 a4 | "G"g3e d2 e2 | B2 G2 d4 |
  "Am"a2 g2 e2 a2 | g2 e2 a4 | "G"g3e d2 e2 | "Am"A2 E2 A4 |
 "Am" a2 g2 e2 a2 | g2 e2 a4 | "G"g3e d2 e2 | B2 G2 d4 |
  "Am"A2 c2 "G"B2 d2 | "C"c2 e2 "Dm"d2 a2 | "Em"g2 e2 g2 B2 | "Am"A4 z4 ||
